X:1
T: Devine's Hornpipe
C:
R:Reel
Q: 232
K:D
M:4/4
L:1/8
|:A,2|DF Ad Bd Ad|ef gf ed Bd|DF Ad Bd Ad|gf ed ce Ac|
DF Ad Bd Ad|ef gf ed cd|gb ag fe dc|d2 d2 d2:|
|:fg|af df ce Ac|dc dA BA FA|GB FA EG DF|Ag Be dc BA|
af df ce Ac|df ce DF AD|GB EA gf ec|d2 d2 d2:|
